X:6250
T:Staggering Home
O:england
S:Phil Rowe via Toby Bennett
M:9/8
K:G
"Em"e2e g2e "B7"^d2B|"Em"e2e gfe "B7"^def|"Em"e2e g2e "D"fga|\
"C"g2e "B7"f2^d "Em"e3|
F"Em"b2 bg2 eg2g|"B7"^d2B ^d2f agf|"Em"g2e " B7"^d2B c2^d|"Em"e2g "B7"fe^d e3|


